assets/images/invoice-generic.svg

<svg width="20" height="20" viewBox="0 0 20 20" fill="none" xmlns="http://www.w3.org/2000/svg">
<path d="M6.75 7C6.33579 7 6 7.33579 6 7.75C6 8.16421 6.33579 8.5 6.75 8.5H13.25C13.6642 8.5 14 8.16421 14 7.75C14 7.33579 13.6642 7 13.25 7H6.75Z" fill="#03D47C"/>
<path fill-rule="evenodd" clip-rule="evenodd" d="M3.8254 1.70739L4.75 2.49991L6.1746 1.27882C6.36185 1.11832 6.63815 1.11832 6.8254 1.27882L8.25 2.49991L9.6746 1.27882C9.86185 1.11832 10.1382 1.11832 10.3254 1.27882L11.75 2.49991L13.1746 1.27882C13.3618 1.11832 13.6382 1.11832 13.8254 1.27882L15.25 2.49991L16.1746 1.70739C16.4989 1.42939 17 1.65984 17 2.08702V7.1875L17.6306 7.69986C17.8643 7.88975 18 8.17484 18 8.47597V18C18 19.1046 17.1046 20 16 20H4C2.89543 20 2 19.1046 2 18V8.47597C2 8.17484 2.1357 7.88975 2.36941 7.69986L3 7.1875V2.08702C3 1.65984 3.50106 1.42939 3.8254 1.70739ZM5 4.91975V9.52781L10 12L15 9.52781V4.91975L13.5 3.63403L11.75 5.13403L10 3.63403L8.25 5.13403L6.5 3.63403L5 4.91975Z" fill="#03D47C"/>
</svg>

<?xml version="1.0" encoding="utf-8"?>
<!-- Generator: Adobe Illustrator 28.1.0, SVG Export Plug-In . SVG Version: 6.00 Build 0)  -->
<svg version="1.1" id="Layer_1" xmlns="http://www.w3.org/2000/svg" xmlns:xlink="http://www.w3.org/1999/xlink" x="0px" y="0px"
	 viewBox="0 0 20 20" style="enable-background:new 0 0 20 20;" xml:space="preserve">
<style type="text/css">
	.st0{fill-rule:evenodd;clip-rule:evenodd;}
</style>
<path d="M6.75,7C6.336,7,6,7.336,6,7.75C6,8.164,6.336,8.5,6.75,8.5h6.5C13.664,8.5,14,8.164,14,7.75C14,7.336,13.664,7,13.25,7
	H6.75z"/>
<path class="st0" d="M3.825,1.707L4.75,2.5l1.425-1.221c0.187-0.161,0.464-0.161,0.651,0L8.25,2.5l1.425-1.221
	c0.187-0.161,0.464-0.161,0.651,0L11.75,2.5l1.425-1.221c0.187-0.161,0.464-0.161,0.651,0L15.25,2.5l0.925-0.793
	C16.499,1.429,17,1.66,17,2.087v5.1L17.631,7.7C17.864,7.89,18,8.175,18,8.476V18c0,1.105-0.895,2-2,2H4c-1.105,0-2-0.895-2-2V8.476
	C2,8.175,2.136,7.89,2.369,7.7L3,7.188v-5.1C3,1.66,3.501,1.429,3.825,1.707z M5,4.92v4.608L10,12l5-2.472V4.92l-1.5-1.286
	l-1.75,1.5L10,3.634l-1.75,1.5l-1.75-1.5L5,4.92z"/>
</svg>
